X:1
T:Mon povre cueur
T:Johannes Lupi
T:Source : Second livre contenant 31 chansons à 4, eslevées de plusieurs livres---Paris---P.Attaignant---1535. Editor : André Vierendeels ( 08/01/18). Notes : Original clefs : C1, C3, C3, F3 Original note values have been halved Editorial accidentals above the staff 
T:Mon povre cueur
T:©
T:©
T:©
C:Johannes Lupi
Z:©
%%score [ 1 [ 2 3 ] 4 ]
L:1/8
Q:1/4=120
M:2/2
K:C
V:1 treble nm="Soprano" snm="S"
V:2 treble-8 nm="Tenor 1" snm="T 1"
V:3 treble-8 nm="Tenor 2" snm="T 2"
V:4 bass nm="Bass" snm="B"
V:1
 c4 c2 c2 | B2 G2 A2 B2 | c3 B/A/ B2 c2 | G4 z2 G2 | A2 c2 B2 A2- | AGFE D2 A2- |"^#" AG G4 F2 | %7
w: Mon po- vre|cueur, plain de dou-|leurs, _ _ _ _|_ à|vous c'est du tout|_ _ _ _ a- don-||
 G8 | z2 c2 c2 c2 | B2 G2 A2 B2 | c3 B/A/ B2 c2 | G4 z2 G2 | A2 c2 B2 A2- | AGFE D2 A2- | %14
w: né,|mais pour ung|aul- tre ou plu-|sieurs, _ _ _ _|_ ain-|sy l'a- vez ha-||
 AG G4 F2 | G4 z2 c2 | c2 c2 A4 | G2 A4 G2 | F2 ED E4 | z2 G2 G2 G2 | A4 G2 A2- | AGGF/E/ F2 ED | %22
w: * * ban- don-|né, vo-|stre cou- rai-|g'est si vo-|lai- * * ge,|qu'il n'y a|rè- gle ne-|* * * * * * com _|
 E4 z2 E2 | G2 G2 D2 D2 | F2 F2 C3 D | EDEF G2 CD | EFGA Bc d2- | d2 c4 B2 | c4 z2 E2 | %29
w: pas, tel|chan- ge qui ne|gai- gne pas, _|_ _ _ _ _ _ _|||* tel|
 G2 G2 D2 D2 | F2 F2 C3 D | EDEF G4 | z2 c2 c2 c2 | B2 d3 c c2- | c2 B2 c4- | c8 |] %36
w: chan- ge qui ne|gai- gne pas, _|_ _ _ _ _|tel chan- ge|qui ne _ gai-|* gne pas.|_|
V:2
 z4 g4 | g2 g2 f2 d2 | e2 f2 gfed | e4 d2 d2 | f4 z2 d2 | e2 f4 f2 | e2 c2 d4 | B2 d2 d2 d2 | %8
w: Mon|po- vre cueur, plain|de dou- * * * *|* leurs, à|vous, à|vous c'est du|tout a- don-|né, mais pour ung|
 e3 f g2 z g | g2 g2 f2 d2 | e2 f2 gfed | e4 d2 d2 | f4 z2 d2 | e2 f4 f2 | e2 c2 d4 | d4 z2 g2 | %16
w: aul- * tre, mais|pour un aul- tre|ou pour plu- * * *|* sieurs, ain-|sy, ain-|sy, l'a- vez|ha- ban- don-|né, vo-|
 g2 g2 f4 | e2 c2 c2 e2 | d4 c2 e2 | e2 e2 dcde | f4 e2 fe | dc c4 B2 | A2 G2 c2 c2 | e2 e2 Bc d2 | %24
w: stre cou- rai-|ge est si vo-|lai- ge, qu'il|n'y a rè- * * *|* gle ne _|_ _ com- *|* pas, tel chan-|ge qui ne _ _|
 d2 A3 B c2- | cBGA B2 c2 | c2 c2 B2 A2 | cdef g4 | edef g2 c2 | e2 e2 Bc d2 | d2 A3 B c2- | %31
w: gai- gne _ _|_ _ _ _ pas, tel|chan- ge qui ne|gai- * * * *|* * * * gne, tel|chan- ge qui _ _|ne gai- * *|
 cdec d4 | c2 G2 G2 G2 | B2 A2 cdef | g4 e4- | e8 |] %36
w: * * * * gne|pas, tel chan- ge|qui ne gai- * * *|gne pas.|_|
V:3
 e4 e2 c2 | d2 e2 d2 d2 | c4 z2 c2 | c2 c2 BcdB | c2 c2 d2 f2 | e2 d4 c2 | B2 AG A4 | G2 B2 B2 B2 | %8
w: Mon po- vre|cueur, plain de dou-|leurs, à|vous c'est du _ _ _|_ tout a- don-|||né, mais pour ung|
 cBcd e2 c2 | d2 e2 d4 | c4 z2 c2 | c2 c2 BcdB | c2 c2 d2 f2 | e2 d4 c2 | B2 AG A4 | G4 z2 e2 | %16
w: aul- * * * tre, mais|pour ung aul-|tre ou|pour plu- sieurs _ , _|_ ain- sy, ain-|sy l'a- vez|ha- ban- * don-|né, vo-|
 e2 e2 d3 c | B2 A3 G E2 | F2 G2 C2 c2 | c2 c2 B3 A/G/ | d2 c3 BAG | F2 G2 A2 B2 | c3 B/A/ G4- | %23
w: stre cou- rai- *|* g'est si vo-|lai- * ge, qu'il|n'y a rè- * *|* le ne _ _|com- * * *|* * * pas,|
 G4 z2 B2 | d2 d2 A2 A2 | c2 c2 G2 e2 | e2 e2 d2 f2 | e3 d/c/ d4 | c3 B/A/ G4- | G4 z2 B2 | %30
w: _ tel|chan- ge qui ne|gai- gne pas, tel|chan- ge qui ne|gai- * * *|* * * gne,|_ tel|
 d2 d2 A2 A2 | c2 c2 G4 | z2 e2 e2 e2 | d2 f2 e3 d/c/ | d2 d2 c4- | c8 |] %36
w: chan- ge qui ne|gai- gne pas,|tel chan- ge|qui ne gai- * *|* gne pas.|_|
V:4
 C,4 C,2 C,2 | G,2 E,2 F,2 G,2 | C,2 F,2 E,2 C,2- | C,D,E,F, G,2 G,2 | F,3 E, D,C, D,2 | %5
w: Mon po- vre|cueur, plain de dou-|leurs, à vous c'est|_ _ _ _ _ du|tout _ _ _ _|
 C,2 D,3 E, F,2 | G,2 E,2 D,4 | z2 G,4 G,2 | E,2 C,3 D,E,C, | G,2 E,2 F,2 G,2 | C,2 F,2 E,2 C,2- | %11
w: _ a- * *|* don- né,|mais pour|ung aul- * * *|tre ou pour plu-|sieurs, ain- sy l'a-|
 C,D,E,F, G,2 G,2 | F,3 E, D,C, D,2 | C,2 D,3 E, F,2 | G,2 E,2 D,4 | G,4 z2 C,2 | C,2 C,2 D,4 | %17
w: * * * * * vez|ha- * * * ban-||* * don-|n', vo-|stre cou- rai-|
 E,2 F,4 G,2 | A,2 B,2 C2 C,2 | C,D,E,F, G,2 G,2 | D,2 F,2 C,2 F,2- | F,2 E,2 D,4 | C,8 | %23
w: ge est si|vo- lai- ge, qu'il|n'y _ _ _ _ a|rè- gle ne com-||pas,|
 z2 E,2 G,2 G,2 | D,2 D,2 F,2 F,2 | C,4 z2 C,2 | C,D,E,F, G,2 F,2 | A,4 G,4 | C,8 | %29
w: tel chan- ge|qui ne gai- gne|pas, qui|ne _ _ _ gai- *|* gne|pas,|
 z2 E,2 G,2 G,2 | D,2 D,2 F,2 F,2 | C,2 C4 B,2 | C2 C,2 C,2 C,2 | G,2 F,2 A,4 | G,4 C,4- | C,8 |] %36
w: tel chan- ge|qui ne gai- gne|pas, tel chan-|ge, tel chan- ge|qui ne gai-|gne pas.|_|

